www/assets/icons/public_off.svg

<svg width="24" height="24" viewBox="0 0 24 24" xmlns="http://www.w3.org/2000/svg" fill='currentColor'><path d="M11.305 7.8702L6.79501 3.3602C8.37501 2.3102 10.265 1.7002 12.305 1.7002C17.825 1.7002 22.305 6.1802 22.305 11.7002C22.305 13.7402 21.695 15.6302 20.645 17.2102L19.185 15.7502C19.895 14.5702 20.305 13.1802 20.305 11.7002C20.305 8.3502 18.235 5.4802 15.305 4.2902V4.7002C15.305 5.8002 14.405 6.7002 13.305 6.7002H11.305V7.8702ZM21.495 20.8902L20.085 22.3002L17.815 20.0302C16.235 21.0902 14.345 21.7002 12.305 21.7002C6.78501 21.7002 2.30501 17.2202 2.30501 11.7002C2.30501 9.6602 2.91501 7.7702 3.96501 6.1902L1.69501 3.9202L3.10501 2.5102L21.495 20.8902ZM11.305 17.7002C10.205 17.7002 9.30501 16.8002 9.30501 15.7002V14.7002L4.51501 9.9102C4.38501 10.4902 4.30501 11.0802 4.30501 11.7002C4.30501 15.7802 7.35501 19.1402 11.305 19.6302V17.7002Z"/></svg>

<svg xmlns="http://www.w3.org/2000/svg" width="24" height="24" viewBox="0 0 24 24" fill='currentColor'><path d="m11.305 7.87-4.51-4.51a9.9 9.9 0 0 1 5.51-1.66c5.52 0 10 4.48 10 10 0 2.04-.61 3.93-1.66 5.51l-1.46-1.46a7.84 7.84 0 0 0 1.12-4.05c0-3.35-2.07-6.22-5-7.41v.41c0 1.1-.9 2-2 2h-2zm10.19 13.02-1.41 1.41-2.27-2.27a9.84 9.84 0 0 1-5.51 1.67c-5.52 0-10-4.48-10-10 0-2.04.61-3.93 1.66-5.51l-2.27-2.27 1.41-1.41zm-10.19-3.19c-1.1 0-2-.9-2-2v-1l-4.79-4.79c-.13.58-.21 1.17-.21 1.79 0 4.08 3.05 7.44 7 7.93z"/></svg>
